public/imgs/products/radiant-ring.svg

<svg style="height: 512px; width: 512px;" xmlns="http://www.w3.org/2000/svg" viewBox="0 0 512 512"><rect fill="#7c99ff" fill-opacity="1" height="512" width="512" rx="32" ry="32"></rect><g class="" style="touch-action: none;" transform="translate(5,-9)"><path d="M191.02 25.346l-22.9 34.35h30.714l22.9-34.35H191.02zm52.347 0l-22.898 34.35h71.06l-22.897-34.35h-25.266zm46.9 0l22.9 34.35h30.714l-22.9-34.35h-30.714zm-117.234 52.35l50.115 50.115-25.058-50.115h-25.057zm45.182 0L256 153.265l37.785-75.57h-75.57zm95.695 0l-25.058 50.115 50.115-50.115H313.91zm-134.435 31.898C109.163 139.5 59.693 209.29 59.693 290.348c0 108.185 88.122 196.306 196.307 196.306 108.185 0 196.307-88.12 196.307-196.306 0-81.057-49.47-150.848-119.782-180.754l-30.517 30.517c64.397 19.592 111.037 79.292 111.037 150.238 0 86.966-70.08 157.045-157.045 157.045-86.966 0-157.045-70.08-157.045-157.045 0-70.946 46.64-130.646 111.037-150.237l-30.517-30.516z" fill="#fff" fill-opacity="1" transform="translate(25.6, 25.6) scale(0.9, 0.9) rotate(0, 256, 256)"></path></g></svg>

<svg style="height: 512px; width: 512px;" xmlns="http://www.w3.org/2000/svg" viewBox="0 0 512 512"><path d="M0 0h512v512H0z" fill="#ffffff" fill-opacity="1"></path><g class="" style="touch-action: none;" transform="translate(0,0)"><g><path d="M191.02 25.346L168.12 59.696L198.834 59.696L221.734 25.346L191.02 25.346Z" class="" fill="#d0021b" fill-opacity="1"></path><path d="M243.367 25.346L220.469 59.696L291.529 59.696L268.632 25.346L243.366 25.346Z" class="" fill="#48baff" fill-opacity="1"></path><path d="M290.267 25.346L313.167 59.696L343.881 59.696L320.981 25.346L290.267 25.346Z" class="selected" fill="#7ed321" fill-opacity="1"></path><path d="M173.033 77.696L223.148 127.811L198.09 77.696L173.033 77.696Z" class="" fill="#9013fe" fill-opacity="1"></path><path d="M218.215 77.696L256 153.265L293.785 77.695L218.215 77.695Z" class="" fill="#f8e71c" fill-opacity="1"></path><path d="M313.91 77.696L288.852 127.811L338.967 77.696L313.91 77.696Z" class="" fill="#fc88fc" fill-opacity="1"></path><path d="M179.475 109.594C109.163 139.5 59.693 209.29 59.693 290.348C59.693 398.533 147.815 486.654 256 486.654C364.185 486.654 452.307 398.534 452.307 290.348C452.307 209.291 402.837 139.5 332.525 109.594L302.008 140.111C366.405 159.703 413.045 219.403 413.045 290.349C413.045 377.315 342.965 447.394 256 447.394C169.034 447.394 98.955 377.314 98.955 290.349C98.955 219.403 145.595 159.703 209.992 140.112L179.475 109.596Z" class="" fill="#f5a623" fill-opacity="1"></path></g></g></svg>
